X: 11044
M: 2/4
L: 1/8
K: D
cAAd | cAAd | cdgf | (f2{gf}e)d |
cAAd | cAHad | cdec | d2 zA |\
f>edc | dBAG | FdEc | d2z |]



